X:1
T:Audi benigne Conditor
T:Johann Stadlmayr (1575 - 1648) Amen by Victoria
T:Audi benigne Conditor
T:Copyright © 2015 by The Choral Public Domain Library. Edition may be freely distributed, duplicated, performed or recorded.
T:Copyright © 2015 by The Choral Public Domain Library. Edition may be freely distributed, duplicated, performed or recorded.
T:Copyright © 2015 by The Choral Public Domain Library. Edition may be freely distributed, duplicated, performed or recorded.
T:Copyright © 2015 by The Choral Public Domain Library. Edition may be freely distributed, duplicated, performed or recorded.
T:Copyright © 2015 by The Choral Public Domain Library. Edition may be freely distributed, duplicated, performed or recorded.
T:Copyright © 2015 by The Choral Public Domain Library. Edition may be freely distributed, duplicated, performed or recorded.
T:Copyright © 2015 by The Choral Public Domain Library. Edition may be freely distributed, duplicated, performed or recorded.
T:Copyright © 2015 by The Choral Public Domain Library. Edition may be freely distributed, duplicated, performed or recorded.
C:Johann Stadlmayr
C:(1575 - 1648)
C:Amen by Victoria
Z:Copyright © 2015 by The Choral Public Domain Library. Edition may be freely distributed, duplicated, performed or recorded.
%%score [ 1 2 3 4 ]
L:1/8
Q:1/2=92
M:4/2
K:C
V:1 treble nm="Soprano" snm="S."
V:2 treble nm="Alto" snm="A."
V:3 treble-8 transpose=-12 nm="Tenor" snm="T."
V:4 bass nm="Baritone" snm="Bar."
V:1
"^Vespers Hymn, Lent I" z8 A8 | A8 F8 | F4 G4 F8- | F4 E4 D8 | z8 A8 | A4 F4 F4 E4 | %6
w: 1.~Au-|di be-|ni- gne Con-|* di- tor,|au-|di be- ni- gne|
 (F6 G2 A4) A4 | F4 A12 | _B8 A8 | F4 A4 G4 G4 | F4 A4 G8 | A16 | G4 F4 E4 E4 | D16 | (E4 F4) G8- | %15
w: Con- * * di-|tor, nos-|tras pre-|ces cum fle- ti-|bus, in hoc|sa-|cro je- ju- ni-|o|fu- * sas|
 G8 G8 | A8 F8 | _B8 A8 | A16 ||[Q:1/2=56][Q:1/2=56] z28 | z30 | z24 | z30 || %23
w: _ qua-|dra- ge-|na- ri-|o.|||||
[M:4/2][Q:1/2=92] z8 A8 | A8 F8 | F4 G4 F8- | F4 E4 D8 | z8 A8 | A4 F4 F4 E4 | (F6 G2 A4) A4 | %30
w: 3.~Mul-|tum qui-|dem pec- ca-|* vi- mus,|mul-|tum qui- dem pec-|ca- * * vi-|
 F4 A12 | _B8 A8 | F4 A4 G4 G4 | F4 A4 G8 | A16 | G4 F4 E4 E4 | D16 | (E4 F4) G8- | G8 G8 | A8 F8 | %40
w: mus, sed|par- ce|con- fi- ten- ti-|bus: Ad no-|mi-|nis lau- dem tu-|i|con- * fer|_ me-|dal- lam|
 _B8 A8 | A16 ||[Q:1/2=56][Q:1/2=56] z28 | z30 | z26 | z30 ||[M:4/2][Q:1/2=92] z8 A8 | A8 F8 | %48
w: lan- gui-|dis.|||||5.~Prae-|sta be-|
 F4 G4 F8- | F4 E4 D8 | z8 A8 | A4 F4 F4 E4 | (F6 G2 A4) A4 | F4 A12 | _B8 A8 | F4 A4 G4 G4 | %56
w: a- ta Tri-|* ni- tas,|Prae-|sta be- a- ta|Tri- * * ni-|tas, con-|ce- de|sim- plex u- ni-|
 F4 A4 G8 | A16 | G4 F4 E4 E4 | D16 | (E4 F4) G8- | G8 G8 | A8 F8 | _B8 A8 | A16 || %65
w: tas: ut fru-|ctu-|o- sa sint tu-|is|je- * ju-|* ni-|o- rum|mu- ne-|ra.|
[Q:1/2=56] A6 G2 F2 ED E4- | E2 D2 D8 ^C4 | D16- | D16- | D16 |] %70
w: A- * * * * *||men.|_||
V:2
 D8 D8 | F8 F8 | (D4 E8) D4- | D4 ^C4 D8 | z4 F4 F8 | C8 D4 C4 | A,8 A,8 | A,8 z4 F4 | %8
w: 1.~Au- di|be- ni-|gne _ Con-|* di- tor,|au- di|be- ni- gne|Con- di-|tor, nos-|
 (F4 E4) F4 C4 | D4 F8 E4 | F8 E8 | F8 D8 | E4 F4 G8- | G4 G4 D8 | (C4 D4) E8 | D8 E8 | C4 (F8 D4 | %17
w: tras _ pre- ces|cum fle- ti-|bus, in|hoc sa-|cro je- ju-|* ni- o|fu- * sas|qua- dra-|ge- na- *|
 E4 D8) ^C4 | D16 || z28 | z30 | z24 | z30 ||[M:4/2] D8 D8 | F8 F8 | (D4 E8) D4- | D4 ^C4 D8 | %27
w: * * ri-|o.|||||3.~Mul- tum|qui- dem|pec- * ca-|* vi- mus,|
 z4 F4 F8 | C8 D4 C4 | A,8 A,8 | A,8 z4 F4 | (F4 E4) F4 C4 | D4 F8 E4 | F8 E8 | F8 D8 | E4 F4 G8- | %36
w: mul- tum|qui- dem pec-|ca- vi-|mus, sed|par- * ce con-|fi- ten- ti-|bus: Ad|no- mi-|nis lau- dem|
 G4 G4 D8 | (C4 D4) E8 | D8 E8 | C4 (F8 D4 | E4 D8) ^C4 | D16 || z28 | z30 | z26 | z30 || %46
w: _ tu- i|con- * fer|me- dal-|lam lan- *|* * gui-|dis.|||||
[M:4/2] D8 D8 | F8 F8 | (D4 E8) D4- | D4 ^C4 D8 | z4 F4 F8 | C8 D4 C4 | A,8 A,8 | A,8 z4 F4 | %54
w: 5.~Prae- sta|be- a-|ta _ Tri-|* ni- tas,|Prae- sta|be- a- ta|Tri- ni-|tas, con-|
 (F4 E4) F4 C4 | D4 F8 E4 | F8 E8 | F8 D8 | E4 F4 G8- | G4 G4 D8 | (C4 D4) E8 | D8 E8 | C4 (F8 D4 | %63
w: ce- * de sim-|plex u- ni-|tas: ut|fru- ctu-|o- sa sint|_ tu- is|je- * ju-|ni- o-|rum mu- *|
 E4 D8) ^C4 | D16 || z4 E2 D2 C6 B,2 | A,16 | A,16 | _B,16 | A,16 |] %70
w: * * ne-|ra.|A- * * *||men.|A-|men.|
V:3
 z16 | z16 | z16 | z16 | A8 A8 | F8 F4 G4 | F12 E4 | D8 z4 d4- | d4 G4 c4 A4 | A4 d8 c4 | %10
w: ||||1.~Au- di|be- ni- gne|Con- di-|tor, nos-|* tras pre- ces|cum fle- ti-|
 A4 F4 c8- | c8 A8 | B4 d4 c8- | c8 B8 | c8 (G4 A4) | B12 c4- | c4 A8 F4 | G8 E8 | D16 || %19
w: bus, in hoc|_ sa-|cro je- ju-|* ni-|o fu- *|sas qua-|* dra- ge-|na- ri-|o.|
 (D2 C2) D2 (F2 E2) F2 (D2 E2) D2 C2 D8 | (F2 E2) (F2 G2) (G2 F2) D2 F2 (D2 E2) D2 C8 | %21
w: 2.~Scru- * ta- tor _ al- me _ cor- di- um,|In- * fir- * ma _ tu scis vi- * ri- um:|
 C2 D2 E2 (F2 E2) D2 E2 F2 G8 | (C2 D2) (F2 G2) E2 (F2 E2) D2 (E2 D2) C2 D8 ||[M:4/2] z16 | z16 | %25
w: Ad te re- ver- * sis ex- hi- be|Re- * mis- * si- o- * nis gra- * ti- am.|||
 z16 | z16 | A8 A8 | F8 F4 G4 | F12 E4 | D8 z4 d4- | d4 G4 c4 A4 | A4 d8 c4 | A4 F4 c8- | c8 A8 | %35
w: ||3.~Mul- tum|qui- dem pec-|ca- vi-|mus, sed|_ par- ce con-|fi- ten- ti-|bus: Ad no-|* mi-|
 B4 d4 c8- | c8 B8 | c8 (G4 A4) | B12 c4- | c4 A8 F4 | G8 E8 | D16 || %42
w: nis lau- dem|_ tu-|i con- *|fer me-|* dal- lam|lan- gui-|dis.|
 (D2 C2) D2 (F2 E2) F2 (D2 E2) D2 C2 D8 | (F2 E2) (F2 G2) (G2 F2) D2 F2 (D2 E2) D2 C8 | %44
w: 4.~Con- * ce- de _ nos- trum _ con- te- ri|Cor- * pus _ per _ ab- sti- nen- * ti- am,|
 C2 C2 D2 E2 (F2 E2) D2 E2 F2 G8 | (C2 D2) (F2 G2) E2 (F2 E2) D2 (E2 D2) C2 D8 ||[M:4/2] z16 | %47
w: Cul- pae ut re- lin- * quant pa- bu- lum|Je- * ju- * na cor- * da cri- * mi- num.||
 z16 | z16 | z16 | A8 A8 | F8 F4 G4 | F12 E4 | D8 z4 d4- | d4 G4 c4 A4 | A4 d8 c4 | A4 F4 c8- | %57
w: |||5.~Prae- sta|be- a- ta|Tri- ni-|tas, con-|* ce- de sim-|plex u- ni-|tas: ut fru-|
 c8 A8 | B4 d4 c8- | c8 B8 | c8 (G4 A4) | B12 c4- | c4 A8 F4 | G8 E8 | D16 || z4 c2 B2 A6 G2 | %66
w: * ctu-|o- sa sint|_ tu-|is je- *|ju- ni-|* o- rum|mu- ne-|ra.|A- * * *|
 F4 E2 D2 E8 | ^F16 | G16 | ^F16 |] %70
w: |men.|A-|men.|
V:4
 z16 | z16 | z16 | z8 D,8 | D,8 F,8 | F,8 (D,4 E,4-) | E,4 D,8 ^C,4 | D,4 F,4 (F,8 | G,8) F,8 | %9
w: |||1.~Au-|di be-|ni- gne _|_ Con- di-|tor, nos- tras|_ pre-|
 D,4 D,4 _B,,4 C,4 | F,,8 z4 C,4 | F,8 F,8 | E,4 D,4 E,4 F,4 | G,16 | z8 (E,4 F,4) | G,8 E,8 | %16
w: ces cum fle- ti-|bus, in|hoc sa-|cro je- ju- ni-|o|fu- *|sas qua-|
 F,8 D,8 | G,,8 A,,8 | D,16 || z28 | z30 | z24 | z30 ||[M:4/2] z16 | z16 | z16 | z8 D,8 | D,8 F,8 | %28
w: dra- ge-|na- ri-|o.||||||||3.~Mul-|tum qui-|
 F,8 (D,4 E,4-) | E,4 D,8 ^C,4 | D,4 F,4 (F,8 | G,8) F,8 | D,4 D,4 _B,,4 C,4 | F,,8 z4 C,4 | %34
w: dem pec- *|* ca- vi-|mus, sed par-|* ce|con- fi- ten- ti-|bus: Ad|
 F,8 F,8 | E,4 D,4 E,4 F,4 | G,16 | z8 (E,4 F,4) | G,8 E,8 | F,8 D,8 | G,,8 A,,8 | D,16 || z28 | %43
w: no- mi-|nis lau- dem tu-|i|con- *|fer me-|dal- lam|lan- gui-|dis.||
 z30 | z26 | z30 ||[M:4/2] z16 | z16 | z16 | z8 D,8 | D,8 F,8 | F,8 (D,4 E,4-) | E,4 D,8 ^C,4 | %53
w: ||||||5.~Prae-|sta be-|a- ta _|_ Tri- ni-|
 D,4 F,4 (F,8 | G,8) F,8 | D,4 D,4 _B,,4 C,4 | F,,8 z4 C,4 | F,8 F,8 | E,4 D,4 E,4 F,4 | G,16 | %60
w: tas, con- ce-|* de|sim- plex u- ni-|tas: ut|fru- ctu-|o- sa sint tu-|is|
 z8 (E,4 F,4) | G,8 E,8 | F,8 D,8 | G,,8 A,,8 | D,16 || A,,16- | A,,16 | D,16 | G,,16 | D,16 |] %70
w: je- *|ju- ni-|o- rum|mu- ne-|ra.|A-||men.|A-|men.|

